symbols/web/tablet_mac/materialsymbolsoutlined/tablet_mac_wght600gradN25fill1_24px.svg

<svg xmlns="http://www.w3.org/2000/svg" height="24" width="24"><path d="M5.3 23.2q-1.025 0-1.775-.75t-.75-1.775V3.325q0-1.025.75-1.775T5.3.8h13.4q1.025 0 1.775.75t.75 1.775v17.35q0 1.025-.75 1.775t-1.775.75Zm0-7.4h13.4V6.25H5.3Zm6.7 4.35q.425 0 .7-.288.275-.287.275-.687 0-.425-.275-.7-.275-.275-.7-.275-.4 0-.688.275-.287.275-.287.675 0 .425.275.712.275.288.7.288Z"/></svg>

<svg xmlns="http://www.w3.org/2000/svg" height="24" width="24"><path d="M5.3 23.2Q4.275 23.2 3.525 22.45Q2.775 21.7 2.775 20.675V3.325Q2.775 2.3 3.525 1.55Q4.275 0.8 5.3 0.8H18.7Q19.725 0.8 20.475 1.55Q21.225 2.3 21.225 3.325V20.675Q21.225 21.7 20.475 22.45Q19.725 23.2 18.7 23.2ZM5.3 15.8H18.7V6.25H5.3ZM12 20.15Q12.425 20.15 12.7 19.862Q12.975 19.575 12.975 19.175Q12.975 18.75 12.7 18.475Q12.425 18.2 12 18.2Q11.6 18.2 11.312 18.475Q11.025 18.75 11.025 19.15Q11.025 19.575 11.3 19.862Q11.575 20.15 12 20.15Z"/></svg>
